X: 10661
Q: "Slow."
M: 3/4
L: 1/8
K: Bb
d2 (ed) (cB) | {d2}c4 (D>E) |\
(cd/e/) d2 c2 | {Bc}B4 :|\
|: (d>e) |\
f2 (gf) (ed) | e2 (fe) (dc) |\
d2 (ed) (cB) | {A}G4 (B/c/d/e/) |
f3 g (fe) | {e}d2 (cB) (cd/e/) |\
{e}d2 (cB) (ee/g/) | Hf4 (d>e) |\
(fd) (gf) (ed) | (ec) (fe) (dc) |\
(dB) (ed) (cB) | {A}HG4 D>E |\
(cd/e/) d2 c2 | B4 :|


